Yaru++/apps/scalable/preferences-autocompletion.svg

<svg id="svg65" enable-background="new" height="256" viewBox="0 0 256 256" width="256" xmlns="http://www.w3.org/2000/svg" xmlns:xlink="http://www.w3.org/1999/xlink">
  <linearGradient id="linearGradient11065" gradientUnits="userSpaceOnUse" x1="80.752003" x2="176.752003" y1="11.248008" y2="235.248008">
    <stop id="stop4241-6" offset="0" stop-color="#e1e1e1"/>
    <stop id="stop4243-7" offset="1" stop-color="#f7f7f7"/>
  </linearGradient>
  <filter id="filter11191" color-interpolation-filters="sRGB" height="1.024" width="1.024" x="-.01" y="-.01">
    <feGaussianBlur id="feGaussianBlur11193" stdDeviation="1.12"/>
  </filter>
  <filter id="filter11210" color-interpolation-filters="sRGB" height="1.096" width="1.096" x="-.05" y="-.05">
    <feGaussianBlur id="feGaussianBlur11212" stdDeviation="4.48"/>
  </filter>
  <circle id="circle41" cx="128.752" cy="127.248" filter="url(#filter11210)" opacity=".1" r="112"/>
  <circle id="circle43" cx="128.752" cy="125.248" filter="url(#filter11191)" opacity=".1" r="112"/>
  <circle id="circle45" cx="128.752" cy="123.248" opacity=".1" r="114"/>
  <circle id="circle47" cx="128.752" cy="123.248" fill="url(#linearGradient11065)" r="112"/>
  <path id="circle871" d="m16.865234 121a112 112 0 0 0 -.113281 2.24805 112 112 0 0 0 111.999997 112 112 112 0 0 0 112-112 112 112 0 0 0 -.08007-2.24805z" fill="#fcfcfc" opacity=".3"/>
  <g id="g875" transform="translate(0 -9.999999)">
    <path id="path919" d="m175.62462 99.824554 3.29712 13.861036h-24.3661c-.00081-.00069-.003-.002-.003-.003l7.79603 16.63746h16.57321l-3.29711 13.86102 16.484-22.17843z" fill="#f22c42" fill-rule="evenodd" stroke-width="7.836725"/>
    <path id="rect3090" d="m121.91865 61.748001-45.177393 116.166659h-9.489261v6.83334h34.166664v-6.83334h-11.010738l10.630358-27.33333h48.59409l10.63036 27.33333h-11.01073v6.83334h41v-6.83334h-9.48927l-45.17741-116.166659zm3.41667 26.359056 21.64113 55.640943h-43.28224z" fill="#5d5d5d"/>
  </g>
</svg>

<?xml version="1.0" encoding="UTF-8" standalone="no"?>
<svg
   xmlns:dc="http://purl.org/dc/elements/1.1/"
   xmlns:cc="http://creativecommons.org/ns#"
   xmlns:rdf="http://www.w3.org/1999/02/22-rdf-syntax-ns#"
   xmlns:svg="http://www.w3.org/2000/svg"
   xmlns="http://www.w3.org/2000/svg"
   xmlns:xlink="http://www.w3.org/1999/xlink"
   xmlns:sodipodi="http://sodipodi.sourceforge.net/DTD/sodipodi-0.dtd"
   xmlns:inkscape="http://www.inkscape.org/namespaces/inkscape"
   style="enable-background:new"
   width="256"
   height="256"
   version="1.0"
   viewBox="0 0 256 256"
   id="svg65"
   sodipodi:docname="preferences-autocompletion.svg"
   inkscape:version="0.92.4 (5da689c313, 2019-01-14)">
  <metadata
     id="metadata69">
    <rdf:RDF>
      <cc:Work
         rdf:about="">
        <dc:format>image/svg+xml</dc:format>
        <dc:type
           rdf:resource="http://purl.org/dc/dcmitype/StillImage" />
        <dc:title>
  Adwaita Icon Template
 </dc:title>
      </cc:Work>
    </rdf:RDF>
  </metadata>
  <sodipodi:namedview
     pagecolor="#ffffff"
     bordercolor="#666666"
     borderopacity="1"
     objecttolerance="10"
     gridtolerance="10"
     guidetolerance="10"
     inkscape:pageopacity="0"
     inkscape:pageshadow="2"
     inkscape:window-width="1920"
     inkscape:window-height="1016"
     id="namedview67"
     showgrid="false"
     inkscape:zoom="3.4011667"
     inkscape:cx="77.37071"
     inkscape:cy="140.96067"
     inkscape:window-x="0"
     inkscape:window-y="27"
     inkscape:window-maximized="1"
     inkscape:current-layer="svg65">
    <inkscape:grid
       type="xygrid"
       id="grid873" />
  </sodipodi:namedview>
  <title
     id="title4162">
  Adwaita Icon Template
 </title>
  <defs
     id="defs39">
    <linearGradient
       id="linearGradient950">
      <stop
         style="stop-color:#9a9996"
         id="stop946"
         offset="0" />
      <stop
         style="stop-color:#77767b"
         id="stop948"
         offset="1" />
    </linearGradient>
    <linearGradient
       id="linearGradient1001"
       x1="1660.857"
       x2="1662.99"
       y1="806.297"
       y2="812.882"
       gradientTransform="matrix(1.8293937,-0.81599442,0.81599442,1.8293937,-3645.9624,100.02949)"
       gradientUnits="userSpaceOnUse"
       xlink:href="#linearGradient950" />
    <clipPath
       id="clipPath5154"
       clipPathUnits="userSpaceOnUse">
      <circle
         style="fill:url(#radialGradient5158)"
         cx="128"
         cy="924.362"
         r="109.647"
         id="circle7" />
    </clipPath>
    <clipPath
       id="clipPath977"
       clipPathUnits="userSpaceOnUse">
      <circle
         style="fill:url(#radialGradient5158)"
         cx="128"
         cy="924.362"
         r="109.647"
         id="circle10" />
    </clipPath>
    <clipPath
       id="clipPath4688"
       clipPathUnits="userSpaceOnUse">
      <path
         style="fill:url(#radialGradient4692);stroke:#a7003f;stroke-linecap:round;stroke-linejoin:round"
         d="m 106.42383,889.60156 c -2.2448,-0.0524 -4.09304,1.75264 -4.09375,3.99805 v 32.64453 32.64453 c -4e-5,3.07923 3.33305,5.004 6,3.46485 l 28.26953,-16.32227 28.27148,-16.32227 c 2.66559,-1.54001 2.66559,-5.38772 0,-6.92773 l -28.27148,-16.32227 -28.26953,-16.32226 c -0.58054,-0.3353 -1.23603,-0.51932 -1.90625,-0.53516 z"
         id="path13" />
    </clipPath>
    <clipPath
       id="clipPath4564"
       clipPathUnits="userSpaceOnUse">
      <circle
         style="fill:url(#radialGradient4568)"
         cx="128"
         cy="924.362"
         r="109.647"
         id="circle16" />
    </clipPath>
    <clipPath
       id="clipPath6215"
       clipPathUnits="userSpaceOnUse">
      <path
         style="fill:url(#radialGradient6219)"
         d="m 105.17325,806.18572 c -3.06859,0.56361 -6.11393,1.24721 -9.129005,2.04923 -3.838255,1.06506 -7.62084,2.32142 -11.333578,3.76438 -3.712189,1.44307 -7.34989,3.07087 -10.899472,4.87732 -3.549153,1.80656 -7.005749,3.78947 -10.35684,5.94129 -3.351877,2.15253 -6.593991,4.47137 -9.714191,6.94783 -3.119992,2.47544 -6.114241,5.10535 -8.971529,7.87988 -0.367219,0.38909 -0.731819,0.78065 -1.093777,1.17464 2.60205,17.85956 16.832359,40.03752 30.863064,55.74236 -4.76734,8.84435 -7.265993,18.73329 -7.272057,28.78068 0.02104,2.87431 0.246096,5.7435 0.673482,8.58593 -20.257302,-9.18513 -43.077023,-26.53494 -52.798465,-47.36396 -0.440667,1.15171 -0.863474,2.31018 -1.268271,3.47498 -1.176789,3.80495 -2.162562,7.66637 -2.953625,11.56979 -0.79154,3.90311 -1.3874065,7.84335 -1.7853678,11.80598 -0.39733,3.96334 -0.5961891,7.94407 -0.5958321,11.92728 -4.394e-4,2.81936 0.098928,5.63785 0.2979155,8.45018 0.282275,3.97319 0.763088,7.92978 1.4406374,11.85493 0.625626,3.51826 1.408798,7.00668 2.347153,10.45473 16.778133,6.68355 43.114514,5.45001 63.748015,1.14301 6.818545,11.02763 16.987182,19.58379 29.018153,24.41667 -18.071844,12.93645 -44.490188,24.02095 -67.37308,22.03245 1.384097,1.665 2.813203,3.2921 4.285735,4.8794 2.774977,2.8571 5.691103,5.5737 8.737453,8.1395 3.046107,2.5658 6.218619,4.9777 9.505651,7.2266 3.287242,2.2488 6.684891,4.3319 10.180217,6.2413 3.495379,1.9096 7.084075,3.6433 10.752641,5.1944 3.66896,1.5509 7.413193,2.9174 11.218668,4.0942 1.438565,0.3959 2.884421,0.7648 4.336807,1.1066 14.138748,-11.1844 26.206378,-34.5828 32.780368,-54.56406 12.95816,-0.38251 25.45395,-4.90132 35.65955,-12.89544 2.15922,22.12638 -1.46693,50.5581 -14.64692,69.3832 3.06859,-0.5636 6.11393,-1.2473 9.129,-2.0493 3.83826,-1.0651 7.62084,-2.3214 11.33358,-3.7644 3.71219,-1.4431 7.34989,-3.0709 10.89947,-4.8773 3.54915,-1.8066 7.00575,-3.7895 10.35684,-5.9413 3.35188,-2.1525 6.59399,-4.4714 9.71419,-6.9478 3.11999,-2.4754 6.11424,-5.1054 8.97153,-7.8799 0.36722,-0.3891 0.73182,-0.7806 1.09378,-1.1746 -2.60204,-17.85957 -16.83236,-40.03755 -30.86307,-55.74238 4.76735,-8.84435 7.266,-18.7333 7.27207,-28.78069 -0.021,-2.8743 -0.24611,-5.74349 -0.6735,-8.58592 20.25731,9.18513 43.07704,26.53494 52.79848,47.36396 0.44067,-1.15171 0.86347,-2.31018 1.26827,-3.47499 1.17679,-3.80495 2.16256,-7.66636 2.95362,-11.56978 0.79154,-3.90311 1.38741,-7.84335 1.78537,-11.80598 0.39733,-3.96334 0.59619,-7.94408 0.59583,-11.92729 4.4e-4,-2.81936 -0.0989,-5.63784 -0.29791,-8.45017 -0.28228,-3.97319 -0.76309,-7.92978 -1.44064,-11.85493 -0.62776,-3.53416 -1.41449,-7.03823 -2.35779,-10.50154 -20.56165,-7.32804 -45.89823,-4.79548 -63.74906,-1.11372 -6.81835,-11.01918 -16.98234,-19.56874 -29.00647,-24.39915 18.07184,-12.93645 44.49019,-24.02091 67.37307,-22.03241 -1.38409,-1.66502 -2.8132,-3.2921 -4.28573,-4.87944 -2.77498,-2.85712 -5.6911,-5.57368 -8.73745,-8.13949 -3.04611,-2.56581 -6.21862,-4.97769 -9.50565,-7.22659 -3.28724,-2.24885 -6.68489,-4.3319 -10.18022,-6.24135 -3.49538,-1.90963 -7.08407,-3.64325 -10.75264,-5.19438 -3.66896,-1.55092 -7.41319,-2.91736 -11.21867,-4.09421 -1.42662,-0.39262 -2.86041,-0.75869 -4.30063,-1.09804 -14.14688,11.18369 -26.2293,34.57475 -32.8107,54.55552 -12.96018,0.38127 -25.4582,4.90015 -35.665394,12.89544 -2.15922,-22.12637 1.466931,-50.55807 14.646924,-69.38315 z"
         id="path19" />
    </clipPath>
    <filter
       style="color-interpolation-filters:sRGB"
       id="filter4278"
       width="1.024"
       height="1.024"
       x="-.01"
       y="-.01">
      <feGaussianBlur
         id="feGaussianBlur4280"
         stdDeviation="1.384" />
    </filter>
    <linearGradient
       id="linearGradient4290"
       x1="226.84"
       x2="406.448"
       y1="429.516"
       y2="146.703"
       gradientUnits="userSpaceOnUse"
       xlink:href="#linearGradient4292" />
    <linearGradient
       id="linearGradient4292">
      <stop
         id="stop4294"
         offset="0"
         style="stop-color:#000000;stop-opacity:0" />
      <stop
         style="stop-color:#000000"
         id="stop4296"
         offset=".496" />
      <stop
         id="stop4298"
         offset="1"
         style="stop-color:#000000;stop-opacity:0" />
    </linearGradient>
    <filter
       style="color-interpolation-filters:sRGB"
       id="filter4300"
       width="1.188"
       height="1.196"
       x="-.09"
       y="-.1">
      <feGaussianBlur
         id="feGaussianBlur4302"
         stdDeviation="11.069" />
    </filter>
    <linearGradient
       id="linearGradient11065"
       x1="104"
       x2="200"
       y1="44"
       y2="268"
       gradientTransform="translate(-23.247997,-32.751992)"
       gradientUnits="userSpaceOnUse"
       xlink:href="#linearGradient4239-3" />
    <linearGradient
       id="linearGradient4239-3">
      <stop
         id="stop4241-6"
         offset="0"
         style="stop-color:#e1e1e1" />
      <stop
         id="stop4243-7"
         offset="1"
         style="stop-color:#f7f7f7" />
    </linearGradient>
    <filter
       style="color-interpolation-filters:sRGB"
       id="filter11191"
       width="1.024"
       height="1.024"
       x="-.01"
       y="-.01">
      <feGaussianBlur
         id="feGaussianBlur11193"
         stdDeviation="1.12" />
    </filter>
    <filter
       style="color-interpolation-filters:sRGB"
       id="filter11210"
       width="1.096"
       height="1.096"
       x="-.05"
       y="-.05">
      <feGaussianBlur
         id="feGaussianBlur11212"
         stdDeviation="4.48" />
    </filter>
    <linearGradient
       xlink:href="#linearGradient3587-6-5-9"
       gradientUnits="userSpaceOnUse"
       gradientTransform="translate(-28.497469,6.8983051)"
       y2="21.102"
       y1="6.102"
       x2="40.498"
       x1="40.498"
       id="linearGradient2860-8" />
    <linearGradient
       id="linearGradient3587-6-5-9">
      <stop
         style="stop-color:#000000"
         offset="0"
         id="stop3589-9-2-0" />
      <stop
         style="stop-color:#363636"
         offset="1"
         id="stop3591-7-4-6" />
    </linearGradient>
    <linearGradient
       id="linearGradient3678">
      <stop
         offset="0"
         id="stop3680"
         style="stop-color:#ffffff" />
      <stop
         offset="1"
         id="stop3682"
         style="stop-color:#e6e6e6" />
    </linearGradient>
    <linearGradient
       xlink:href="#linearGradient3678"
       gradientUnits="userSpaceOnUse"
       gradientTransform="matrix(-0.4100229,0,0,0.5447147,78.029995,-3.8459034)"
       y2="38.28"
       y1="14.404"
       x2="159.686"
       x1="159.686"
       id="linearGradient2388" />
    <linearGradient
       spreadMethod="pad"
       gradientUnits="userSpaceOnUse"
       gradientTransform="matrix(19.078465,0,0,19.078465,-23.184996,12.942266)"
       y2="0"
       y1="0"
       x2="1"
       x1="0"
       id="linearGradient170">
      <stop
         offset="0"
         id="stop156"
         style="stop-color:#469edd" />
      <stop
         offset=".33"
         id="stop158"
         style="stop-color:#3a7ec9" />
      <stop
         offset=".4"
         id="stop160"
         style="stop-color:#387ac7" />
      <stop
         offset=".42"
         id="stop162"
         style="stop-color:#3574c3" />
      <stop
         offset=".5"
         id="stop164"
         style="stop-color:#98dcf7" />
      <stop
         offset=".54"
         id="stop166"
         style="stop-color:#2f67ba" />
      <stop
         offset="1"
         id="stop168"
         style="stop-color:#2e358b" />
    </linearGradient>
  </defs>
  <circle
     style="opacity:0.1;filter:url(#filter11210)"
     cx="128.752"
     cy="127.248"
     r="112"
     id="circle41" />
  <circle
     style="opacity:0.1;filter:url(#filter11191)"
     cx="128.752"
     cy="125.248"
     r="112"
     id="circle43" />
  <circle
     style="opacity:0.1"
     cx="128.752"
     cy="123.248"
     r="114"
     id="circle45" />
  <circle
     style="fill:url(#linearGradient11065)"
     cx="128.752"
     cy="123.248"
     r="112"
     id="circle47" />
  <path
     style="fill:#fcfcfc;fill-opacity:1;opacity:0.3"
     d="M 16.865234 121 A 112 112 0 0 0 16.751953 123.24805 A 112 112 0 0 0 128.75195 235.24805 A 112 112 0 0 0 240.75195 123.24805 A 112 112 0 0 0 240.67188 121 L 16.865234 121 z "
     id="circle871" />
  <g
     id="g875"
     transform="translate(0,-9.9999994)">
    <path
       inkscape:connector-curvature="0"
       id="path919"
       d="m 175.62462,99.824554 3.29712,13.861036 h -24.3661 c -8.1e-4,-6.9e-4 -0.003,-0.002 -0.003,-0.003 l 7.79603,16.63746 h 16.57321 l -3.29711,13.86102 16.484,-22.17843 z"
       style="fill:#f22c42;fill-opacity:1;fill-rule:evenodd;stroke-width:7.83672476" />
    <path
       inkscape:export-ydpi="96"
       inkscape:export-xdpi="96"
       id="rect3090"
       d="M 121.91865,61.748001 76.741257,177.91466 h -9.489261 v 6.83334 h 34.166664 v -6.83334 H 90.407922 l 10.630358,-27.33333 h 48.59409 l 10.63036,27.33333 H 149.252 v 6.83334 h 41 v -6.83334 h -9.48927 L 135.58532,61.748001 Z m 3.41667,26.359056 21.64113,55.640943 h -43.28224 z"
       style="display:inline;opacity:1;vector-effect:none;fill:#5d5d5d;fill-opacity:1;stroke:none;stroke-width:30.1595192;stroke-linecap:round;stroke-linejoin:round;stroke-miterlimit:4;stroke-dasharray:none;stroke-dashoffset:0;stroke-opacity:0;enable-background:new"
       inkscape:connector-curvature="0" />
  </g>
</svg>
